pix_core/e/subscript.svg

<!DOCTYPE svg PUBLIC "-//W3C//DTD SVG 1.1//EN" "http://www.w3.org/Graphics/SVG/1.1/DTD/svg11.dtd" [
	<!ENTITY ns_flows "http://ns.adobe.com/Flows/1.0/">
]><svg xmlns="http://www.w3.org/2000/svg" width="16" height="16" viewBox="0 -1.4 16 16" preserveAspectRatio="xMinYMid meet" overflow="visible" enable-background="new 0 -1.4 16 16"><path d="M10.7 14.5c1.4-1.5 2.4-2.6 2.9-3.3s.8-1.4.8-2c0-.6-.2-1-.5-1.3-.3-.3-.7-.5-1.1-.5-.5 0-1 .2-1.3.6-.2.2-.4.5-.5 1l-.3-.1c.2-.9.5-1.5 1-1.9.5-.3 1-.5 1.5-.5.7 0 1.2.2 1.6.6s.6.9.6 1.5-.2 1.3-.7 1.9c-.4.6-1.4 1.6-2.9 3.2h2.7c.4 0 .6 0 .8-.1.2-.1.3-.3.5-.7l.2.1-.7 1.6h-4.7v-.1zm-10.7-4.2c.4 0 .8-.2 1-.3.2-.2.7-.7 1.3-1.5l2.5-3.1-1.8-2.6c-.7-1.1-1.3-1.8-1.6-2.1-.3-.2-.7-.4-1.2-.4v-.3h4.8v.3c-.5 0-.8 0-.9.1-.2.1-.3.2-.3.4 0 .1.1.3.2.5 0 .2 0 .3.1.4l1.7 2.4 1.8-2.2c.2-.3.4-.6.5-.7.1-.2.1-.3.1-.4 0-.2-.1-.4-.3-.5-.1 0-.4-.1-.8-.1v-.2h3.8v.3c-.4 0-.8.1-1 .2-.4.2-.8.6-1.4 1.3l-2.3 2.9 3 4.4c.4.5.6.8.8.9s.5.2.9.3v.3h-4.6v-.3c.5 0 .8 0 .9-.1s.3-.2.3-.4-.1-.4-.4-.8c-.2-.4-.8-1.4-1.9-3l-1.9 2.4c-.3.3-.5.6-.6.7-.1.3-.2.5-.2.6 0 .2.1.4.4.5.2.1.4.1.8.1v.3h-3.7v-.3z" fill="#888"/></svg>

<?xml version="1.0" encoding="utf-8"?>
<!-- Generator: Adobe Illustrator 15.1.0, SVG Export Plug-In  -->
<!DOCTYPE svg PUBLIC "-//W3C//DTD SVG 1.1//EN" "http://www.w3.org/Graphics/SVG/1.1/DTD/svg11.dtd" [
	<!ENTITY ns_flows "http://ns.adobe.com/Flows/1.0/">
]>
<svg version="1.1"
	 xmlns="http://www.w3.org/2000/svg" xmlns:xlink="http://www.w3.org/1999/xlink" xmlns:a="http://ns.adobe.com/AdobeSVGViewerExtensions/3.0/"
	 x="0px" y="0px" width="16px" height="16px" viewBox="0 -1.4 16 16" style="overflow:visible;enable-background:new 0 -1.4 16 16;"
	 xml:space="preserve" preserveAspectRatio="xMinYMid meet">
<defs>
</defs>
<path style="fill:#29a1c4;" d="M10.7,14.5c1.4-1.5,2.4-2.6,2.9-3.3s0.8-1.4,0.8-2c0-0.6-0.2-1-0.5-1.3c-0.3-0.3-0.7-0.5-1.1-0.5
	c-0.5,0-1,0.2-1.3,0.6c-0.2,0.2-0.4,0.5-0.5,1l-0.3-0.1c0.2-0.9,0.5-1.5,1-1.9c0.5-0.3,1-0.5,1.5-0.5c0.7,0,1.2,0.2,1.6,0.6
	s0.6,0.9,0.6,1.5c0,0.6-0.2,1.3-0.7,1.9c-0.4,0.6-1.4,1.6-2.9,3.2h2.7c0.4,0,0.6,0,0.8-0.1c0.2-0.1,0.3-0.3,0.5-0.7L16,13l-0.7,1.6
	h-4.7V14.5z M0,10.3c0.4,0,0.8-0.2,1-0.3c0.2-0.2,0.7-0.7,1.3-1.5l2.5-3.1L3,2.8C2.3,1.7,1.7,1,1.4,0.7C1.1,0.5,0.7,0.3,0.2,0.3V0H5
	v0.3c-0.5,0-0.8,0-0.9,0.1C3.9,0.5,3.8,0.6,3.8,0.8c0,0.1,0.1,0.3,0.2,0.5C4,1.5,4,1.6,4.1,1.7l1.7,2.4l1.8-2.2
	C7.8,1.6,8,1.3,8.1,1.2C8.2,1,8.2,0.9,8.2,0.8c0-0.2-0.1-0.4-0.3-0.5c-0.1,0-0.4-0.1-0.8-0.1V0h3.8v0.3c-0.4,0-0.8,0.1-1,0.2
	C9.5,0.7,9.1,1.1,8.5,1.8L6.2,4.7l3,4.4C9.6,9.6,9.8,9.9,10,10s0.5,0.2,0.9,0.3v0.3H6.3v-0.3c0.5,0,0.8,0,0.9-0.1S7.5,10,7.5,9.8
	c0-0.2-0.1-0.4-0.4-0.8C6.9,8.6,6.3,7.6,5.2,6L3.3,8.4C3,8.7,2.8,9,2.7,9.1C2.6,9.4,2.5,9.6,2.5,9.7c0,0.2,0.1,0.4,0.4,0.5
	c0.2,0.1,0.4,0.1,0.8,0.1v0.3H0V10.3z"/>
</svg>
